X:0511
T:Awa Whigs awa.
M:C
L:1/8
Q:1/2=40 "Very Slow"
I: :: ::
Z:Jack Campin * www.campin.me.uk * 2009
K:E Minor
(Bc)|    d4       Td3  B|({B}d4)  d2(Bd)| e4      Te3   d |({d}e4) e2
 g2 |({e}d2)B2 ({B}A2)G2|   G3A   B2 AG |(AB)(de) (dB)(AG)|    E4 E2::
 Bc |    dBde      dgBg |   d4    d2 gf | egdg     egdg   |    e4 e2
 ge |    dBde      gabd |   BdAB  GABG  | ABge     dBAG   |    E4 E2:|

